X: 32666
T: Poetic Milkman, The
R: jig
M: 6/8
K: Bminor
A|:B3 dBB|ABB fef|aff ecc|dfe dBA|
B3 dBB|ABB GBB|cAA fec|1 dcA B2A:|2 dcA B2 f||
|:aff edd|ede faa|dBB cAA|Bcd cdf|
aff edd|ede faa|fdd ecc|1 dcA B2f:|2 dcA B2 A||
|:Bdd cAA|faa ecc|d2e fed|cAA fec|
Bdd cee|dag fdB|ceA dfc|1 dcA B2A:|2 dcA B2c||
|:dag fdd|ede faa|eaa fed|GBB cAA|
dag fdd|ede faa|cee dfc|1 dcA B2c:|2 dcA B3||

